X: 34075
T: Reel De Montreal
R: reel
M: 4/4
K: Gmajor
(3def|:g2fe dcBA|GBDG B2AG|FADF A2BA|GBDG B2 (3def|
g2fe dcBA|GBDG B2AG|FGAB cdef|1 g2 (3agf g2d2:|2 gbaf g2d2||
K:D
|:A2FA d2Ad|f2df a2ab|(3aba (3gag (3efe c2|b2a2 f2d2|
A2FA d2 (3A/B/c/d|f2df a2ab|a2g2 e2c2|1 d2f2d2 (3BcB:|2 d2f2d4||

